modules/coreui-icons-free/icons/car-alt.svg

<!-- Generated by IcoMoon.io -->
<svg version="1.1" xmlns="http://www.w3.org/2000/svg" width="24" height="24" viewBox="0 0 24 24">
<title>car-alt</title>
<path d="M22.296 10.46l-4.232-0.652-2.579-4.213c-0.269-0.433-0.742-0.717-1.281-0.717-0.004 0-0.007 0-0.011 0h0.001l-10.807 0.086c-0.652 0.006-1.204 0.426-1.406 1.010l-0.003 0.011-1.228 3.642v8.373h2.578c0.414 1.314 1.621 2.25 3.047 2.25s2.633-0.936 3.040-2.227l0.006-0.023h4.782c0.414 1.314 1.621 2.25 3.047 2.25s2.633-0.936 3.040-2.227l0.006-0.023h2.953v-6.428c0-0.002 0-0.003 0-0.005 0-0.56-0.411-1.023-0.947-1.106l-0.006-0.001zM14.207 6.378l2.067 3.377-5.774-0.002v-3.346zM3.399 6.464l5.601-0.045v3.333l-6.709-0.002zM6.375 18.75c-0.932 0-1.688-0.756-1.688-1.688s0.756-1.688 1.688-1.688c0.932 0 1.688 0.756 1.688 1.688v0c-0.001 0.932-0.756 1.686-1.687 1.688h-0zM17.25 18.75c-0.932 0-1.688-0.756-1.688-1.688s0.756-1.688 1.688-1.688c0.932 0 1.688 0.756 1.688 1.688v0c-0.001 0.932-0.756 1.686-1.687 1.688h-0zM21.75 16.5h-1.363c-0.276-1.502-1.575-2.625-3.137-2.625s-2.861 1.123-3.134 2.605l-0.003 0.020h-4.601c-0.276-1.502-1.575-2.625-3.137-2.625s-2.861 1.123-3.134 2.605l-0.003 0.020h-0.988v-5.249l15.493 0.025 4.007 0.617z"></path>
</svg>

<svg xmlns="http://www.w3.org/2000/svg" width="24" height="24" viewBox="0 0 24 24"><path d="M22.296 10.46l-4.232-.652-2.579-4.213a1.505 1.505 0 00-1.281-.717h-.011.001l-10.807.086a1.502 1.502 0 00-1.406 1.01l-.003.011L.75 9.627V18h2.578c.414 1.314 1.621 2.25 3.047 2.25s2.633-.936 3.04-2.227L9.421 18h4.782c.414 1.314 1.621 2.25 3.047 2.25s2.633-.936 3.04-2.227l.006-.023h2.953v-6.428-.005a1.12 1.12 0 00-.947-1.106l-.006-.001zm-8.089-4.082l2.067 3.377-5.774-.002V6.407zm-10.808.086L9 6.419v3.333L2.291 9.75zM6.375 18.75a1.688 1.688 0 111.688-1.688 1.69 1.69 0 01-1.687 1.688zm10.875 0a1.688 1.688 0 111.688-1.688 1.69 1.69 0 01-1.687 1.688zm4.5-2.25h-1.363a3.187 3.187 0 00-6.271-.02l-.003.02H9.512a3.187 3.187 0 00-6.271-.02l-.003.02H2.25v-5.249l15.493.025 4.007.617z"/></svg>
